; generated by PrusaSlicer 2.9.2 on 2025-09-21 at 09:05:11 UTC

; 

; external perimeters extrusion width = 0.45mm
; perimeters extrusion width = 0.45mm
; infill extrusion width = 0.45mm
; solid infill extrusion width = 0.45mm
; top infill extrusion width = 0.40mm
; first layer extrusion width = 0.42mm

M190 S60 ; set bed temperature and wait for it to be reached
M104 S215 ; set temperature
;TYPE:Custom
G28 ; home all axes
G1 Z5 F5000 ; lift nozzle
M109 S215 ; set temperature and wait for it to be reached
G21 ; set units to millimeters
G90 ; use absolute coordinates
M82 ; use absolute distances for extrusion
G92 E0
; Filament gcode
M107
;LAYER_CHANGE
;Z:-1.28
;HEIGHT:-1.28
G1 E-2 F2400
G92 E0
G1 Z-1.28 F18000
G1 X61.693 Y26.226
G1 E2 F2400
;TYPE:Skirt/Brim
;WIDTH:0.42
;HEIGHT:0.35
G1 F1260
G1 X63.33 Y22.907 E2.18573
G1 X65.951 Y18.968 E2.42318
G1 X69.267 Y15.308 E2.67104
G1 X72.887 Y12.342 E2.90591
G1 X76.687 Y10.032 E3.12909
G1 X80.765 Y8.262 E3.35219
G1 X83.915 Y7.318 E3.51722
G1 X87.475 Y6.653 E3.69897
G1 X89.662 Y6.439 E3.80925
G1 X113.141 Y4.999 E4.98978
G1 X116.338 Y4.917 E5.15028
G1 X118.843 Y5.009 E5.27608
G1 X121.509 Y5.258 E5.41046
G1 X124.419 Y5.712 E5.55827
G1 X126.73 Y6.21 E5.67691
G1 X129.549 Y6.991 E5.82371
G1 X132.099 Y7.867 E5.95902
G1 X134.453 Y8.83 E6.08666
G1 X136.888 Y9.993 E6.22209
G1 X139.111 Y11.216 E6.34942
G1 X141.474 Y12.7 E6.48946
G1 X143.759 Y14.337 E6.63053
G1 X145.711 Y15.915 E6.7565
G1 X147.702 Y17.722 E6.89144
G1 X149.456 Y19.504 E7.01693
G1 X151.237 Y21.53 E7.15231
G1 X152.738 Y23.446 E7.27446
G1 X154.867 Y26.577 E7.46448
G1 X156.361 Y29.199 E7.61593
G1 X158.082 Y33.184 E7.83377
G1 X159.364 Y37.918 E8.07991
G1 X159.901 Y42.5 E8.31144
G1 X159.766 Y47.195 E8.54716
G1 X159.02 Y51.536 E8.76821
G1 X157.818 Y55.398 E8.9712
G1 X156.349 Y58.686 E9.15193
G1 X155.38 Y60.437 E9.25236
G1 X154.018 Y62.601 E9.38068
G1 X152.711 Y64.452 E9.4944
G1 X151.05 Y66.555 E9.62889
G1 X149.383 Y68.434 E9.75495
G1 X147.573 Y70.262 E9.88405
G1 X145.771 Y71.894 E10.00606
G1 X143.989 Y73.346 E10.12142
G1 X141.903 Y74.87 E10.25107
G1 X139.941 Y76.146 E10.36853
G1 X137.547 Y77.521 E10.50708
G1 X135.579 Y78.515 E10.61773
G1 X133.543 Y79.421 E10.72957
G1 X131.227 Y80.313 E10.85412
G1 X128.94 Y81.056 E10.9748
G1 X126.444 Y81.719 E11.10441
G1 X123.95 Y82.236 E11.23223
G1 X120.958 Y82.667 E11.38394
G1 X118.367 Y82.88 E11.51441
G1 X115.463 Y82.943 E11.66018
G1 X113.113 Y82.86 E11.77819
G1 X89.704 Y81.425 E12.9552
G1 X87.56 Y81.218 E13.0633
G1 X83.837 Y80.524 E13.25336
G1 X80.876 Y79.638 E13.40847
G1 X76.872 Y77.924 E13.62705
G1 X73.005 Y75.602 E13.85342
G1 X69.438 Y72.713 E14.08378
G1 X66.261 Y69.286 E14.3183
G1 X63.602 Y65.425 E14.55357
G1 X61.635 Y61.49 E14.77435
G1 X60.252 Y57.475 E14.98747
G1 X59.589 Y54.507 E15.14009
G1 X59.154 Y50.79 E15.3279
G1 X59.092 Y48.83 E15.42631
G1 X59.092 Y39.036 E15.91783
G1 X59.17 Y36.83 E16.02861
G1 X59.682 Y32.851 E16.22995
G1 X60.61 Y29.167 E16.42061
G1 X61.673 Y26.282 E16.57491
G1 X61.996 Y26.401 F18000
G1 F1260
G1 X62.011 Y26.36 E16.5771
G1 X63.629 Y23.078 E16.76074
G1 X66.223 Y19.181 E16.99568
G1 X69.505 Y15.557 E17.24105
G1 X73.087 Y12.623 E17.47342
G1 X76.847 Y10.338 E17.69423
G1 X80.881 Y8.587 E17.91493
G1 X83.998 Y7.652 E18.07825
G1 X87.519 Y6.995 E18.258
G1 X89.684 Y6.783 E18.36717
G1 X113.162 Y5.343 E19.54765
G1 X116.335 Y5.262 E19.70694
G1 X118.822 Y5.353 E19.83184
G1 X121.468 Y5.6 E19.96521
G1 X124.354 Y6.05 E20.1118
G1 X126.649 Y6.545 E20.22963
G1 X129.448 Y7.32 E20.37539
G1 X131.976 Y8.189 E20.50955
G1 X134.313 Y9.145 E20.63627
G1 X136.729 Y10.3 E20.77066
G1 X138.935 Y11.513 E20.897
G1 X141.281 Y12.986 E21.03602
G1 X143.55 Y14.611 E21.17608
G1 X145.486 Y16.176 E21.30101
G1 X147.36 Y17.872 E21.42786
G1 X149.203 Y19.738 E21.55948
G1 X150.97 Y21.749 E21.69383
G1 X152.46 Y23.65 E21.81505
G1 X154.091 Y25.998 E21.95853
G1 X155.189 Y27.78 E22.06357
G1 X156.132 Y29.509 E22.16241
G1 X157.756 Y33.298 E22.36929
G1 X159.025 Y37.981 E22.61279
G1 X159.556 Y42.515 E22.84189
G1 X159.423 Y47.159 E23.07505
G1 X158.685 Y51.454 E23.29376
G1 X157.496 Y55.274 E23.49454
G1 X156.042 Y58.529 E23.67345
G1 X155.083 Y60.262 E23.77285
G1 X153.731 Y62.409 E23.90018
G1 X152.434 Y64.247 E24.01308
G1 X150.785 Y66.334 E24.14657
G1 X149.132 Y68.198 E24.2716
G1 X147.335 Y70.012 E24.39974
G1 X145.545 Y71.633 E24.52093
G1 X143.779 Y73.073 E24.63529
G1 X141.708 Y74.585 E24.76398
G1 X139.761 Y75.852 E24.88056
G1 X137.385 Y77.216 E25.01805
G1 X135.431 Y78.203 E25.12791
G1 X133.409 Y79.103 E25.23898
G1 X131.112 Y79.988 E25.36252
G1 X128.841 Y80.726 E25.48236
G1 X126.365 Y81.384 E25.61093
G1 X123.889 Y81.896 E25.73782
G1 X120.92 Y82.324 E25.88836
G1 X118.347 Y82.536 E26.01793
G1 X115.467 Y82.598 E26.1625
G1 X113.134 Y82.515 E26.27966
G1 X89.725 Y81.08 E27.45667
G1 X87.602 Y80.876 E27.56371
G1 X83.919 Y80.189 E27.75173
G1 X80.989 Y79.312 E27.90522
G1 X77.028 Y77.616 E28.12146
G1 X73.201 Y75.318 E28.34549
G1 X69.675 Y72.462 E28.57321
G1 X66.531 Y69.071 E28.80528
G1 X63.899 Y65.249 E29.03817
G1 X61.954 Y61.358 E29.25648
G1 X60.584 Y57.383 E29.46748
G1 X59.929 Y54.447 E29.61845
G1 X59.499 Y50.768 E29.80434
G1 X59.437 Y48.83 E29.90165
G1 X59.437 Y39.036 E30.39317
G1 X59.514 Y36.852 E30.50284
G1 X60.021 Y32.915 E30.70205
G1 X60.939 Y29.272 E30.89059
G1 X61.975 Y26.458 E31.04108
G1 X62.298 Y26.577 F18000
G1 F1260
G1 X62.329 Y26.494 E31.04553
G1 X63.929 Y23.249 E31.2271
G1 X66.495 Y19.393 E31.45955
G1 X69.744 Y15.807 E31.7024
G1 X73.096 Y13.039 E31.92057
G1 X76.797 Y10.753 E32.13888
G1 X80.998 Y8.912 E32.36907
G1 X84.081 Y7.987 E32.53061
G1 X87.562 Y7.337 E32.70833
G1 X89.705 Y7.128 E32.81639
G1 X113.183 Y5.687 E33.99687
G1 X116.333 Y5.607 E34.15501
G1 X118.801 Y5.697 E34.27895
G1 X121.427 Y5.942 E34.41131
G1 X124.289 Y6.389 E34.55668
G1 X126.569 Y6.881 E34.67374
G1 X129.346 Y7.65 E34.81835
G1 X131.854 Y8.512 E34.95144
G1 X134.173 Y9.46 E35.07717
G1 X136.452 Y10.546 E35.20387
G1 X138.76 Y11.81 E35.33593
G1 X141.088 Y13.271 E35.47386
G1 X143.34 Y14.885 E35.61291
G1 X145.261 Y16.438 E35.73688
G1 X147.121 Y18.121 E35.86277
G1 X148.95 Y19.973 E35.9934
G1 X150.704 Y21.969 E36.12675
G1 X152.183 Y23.855 E36.24703
G1 X153.441 Y25.638 E36.35654
G1 X154.892 Y27.955 E36.49374
G1 X155.825 Y29.666 E36.59154
G1 X157.431 Y33.413 E36.79613
G1 X158.686 Y38.045 E37.03697
G1 X159.212 Y42.529 E37.26355
G1 X159.08 Y47.123 E37.4942
G1 X158.35 Y51.371 E37.71051
G1 X157.174 Y55.15 E37.90913
G1 X155.735 Y58.372 E38.08622
G1 X154.785 Y60.087 E38.18461
G1 X153.444 Y62.218 E38.31097
G1 X152.156 Y64.042 E38.42303
G1 X150.52 Y66.113 E38.55548
G1 X148.881 Y67.962 E38.67948
G1 X147.098 Y69.762 E38.80663
G1 X145.32 Y71.372 E38.92701
G1 X143.569 Y72.799 E39.04037
G1 X141.513 Y74.3 E39.16812
G1 X139.582 Y75.557 E39.28375
G1 X137.223 Y76.912 E39.42028
G1 X135.284 Y77.891 E39.52929
G1 X133.276 Y78.785 E39.6396
G1 X130.996 Y79.663 E39.76221
G1 X128.742 Y80.395 E39.88114
G1 X126.287 Y81.048 E40.00863
G1 X123.828 Y81.557 E40.13465
G1 X120.881 Y81.981 E40.28407
G1 X118.328 Y82.191 E40.41263
G1 X115.471 Y82.254 E40.55605
G1 X113.155 Y82.171 E40.67236
G1 X89.746 Y80.736 E41.84937
G1 X87.645 Y80.534 E41.9553
G1 X84.001 Y79.854 E42.14133
G1 X81.102 Y78.986 E42.2932
G1 X77.183 Y77.308 E42.50715
G1 X73.398 Y75.035 E42.72872
G1 X69.911 Y72.211 E42.95391
G1 X66.801 Y68.857 E43.18346
G1 X64.195 Y65.074 E43.414
G1 X62.273 Y61.227 E43.62982
G1 X60.917 Y57.292 E43.8387
G1 X60.268 Y54.386 E43.98813
G1 X59.843 Y50.746 E44.17205
G1 X59.782 Y48.83 E44.26825
G1 X59.782 Y39.036 E44.75977
G1 X59.858 Y36.873 E44.86839
G1 X60.36 Y32.978 E45.06548
G1 X61.267 Y29.377 E45.25184
G1 X62.278 Y26.633 E45.3986
G1 E43.3986 F2400
G92 E0
G92 E0
G1 X120.436 Y44.638 F18000
G1 E2 F2400
;TYPE:External perimeter
;WIDTH:0.42
G1 F5040
G1 X120.616 Y44.044 E2.03115
G1 X121 Y42.947 E2.08948
G1 X121.261 Y42.482 E2.11624
G1 X121.597 Y42.225 E2.13747
G1 X121.841 Y42.216 E2.14972
G1 X122.037 Y42.305 E2.16052
;WIDTH:0.43393
G1 X122.326 Y42.628 E2.18315
;WIDTH:0.470307
G1 X122.385 Y42.825 E2.19498
;WIDTH:0.506685
G1 X122.444 Y43.022 E2.20789
G1 X122.3 Y43.361 E2.23102
;WIDTH:0.463342
G1 X122.156 Y43.701 E2.25188
;WIDTH:0.42
G1 X120.885 Y47.247 E2.44093
G1 X120.306 Y48.666 E2.51784
G1 X119.959 Y49.225 E2.55086
G1 X119.642 Y49.484 E2.5714
G1 X119.371 Y49.614 E2.58648
G1 X118.889 Y49.747 E2.61157
G1 X118.446 Y49.723 E2.63383
G1 X118.12 Y49.483 E2.65415
G1 X117.945 Y49.068 E2.67675
G1 X117.996 Y48.702 E2.6953
G1 X118.143 Y48.534 E2.7065
G1 X118.348 Y48.436 E2.7179
G1 X118.815 Y48.273 E2.74272
G1 X119.021 Y48.153 E2.75468
G1 X119.292 Y47.714 E2.78057
G1 X119.635 Y46.899 E2.82495
G1 X119.698 Y46.657 E2.8375
G1 X119.582 Y46.263 E2.85811
G1 X119.342 Y45.697 E2.88896
G1 X118.408 Y43.187 E3.02336
G1 X118.37 Y42.787 E3.04352
G1 X118.456 Y42.478 E3.05962
G1 X118.691 Y42.258 E3.07578
G1 X118.942 Y42.203 E3.08868
G1 X119.189 Y42.236 E3.10119
G1 X119.569 Y42.454 E3.12318
G1 X119.771 Y42.804 E3.14346
G1 X119.952 Y43.435 E3.1764
G1 X120.413 Y44.583 E3.23849
G1 X120.569 Y44.214 F18000
G1 E1.23849 F2400
G92 E0
G1 X115.971 Y45.966 F18000
G1 E2 F2400
G1 F5040
G1 X115.965 Y45.955 E2.00063
G1 X115.615 Y46.643 E2.03937
G1 X115.271 Y47.077 E2.06716
G1 X115.007 Y47.215 E2.08211
G1 X114.687 Y47.181 E2.09826
G1 X114.428 Y47.014 E2.11373
;WIDTH:0.439235
G1 X114.284 Y46.787 E2.12797
;WIDTH:0.473581
G1 X114.233 Y46.514 E2.14407
;WIDTH:0.485176
G1 X114.271 Y46.36 E2.15353
G1 X114.393 Y46.133 E2.16891
;WIDTH:0.452588
G1 X114.515 Y45.907 E2.18302
;WIDTH:0.42
G1 X114.881 Y45.265 E2.22011
G1 X115.197 Y44.817 E2.24762
G1 X115.242 Y44.675 E2.2551
G1 X114.659 Y43.682 E2.31289
G1 X114.416 Y43.187 E2.34056
G1 X114.336 Y42.968 E2.35226
G1 X114.338 Y42.675 E2.36696
G1 X114.448 Y42.454 E2.37935
G1 X114.605 Y42.323 E2.38961
G1 X115.019 Y42.204 E2.41123
G1 X115.299 Y42.285 E2.42586
G1 X115.623 Y42.599 E2.4485
G1 X116.055 Y43.359 E2.49237
G1 X116.366 Y42.71 E2.52849
G1 X116.717 Y42.338 E2.55416
G1 X117.015 Y42.206 E2.57052
G1 X117.297 Y42.247 E2.58482
G1 X117.539 Y42.433 E2.60014
G1 X117.659 Y42.622 E2.61138
G1 X117.706 Y42.903 E2.62568
G1 X117.627 Y43.184 E2.64033
G1 X116.957 Y44.319 E2.70647
G1 X116.861 Y44.627 E2.72266
G1 X116.97 Y44.966 E2.74053
G1 X117.591 Y46 E2.80106
G1 X117.735 Y46.333 E2.81927
G1 X117.766 Y46.584 E2.83196
G1 X117.726 Y46.82 E2.84397
G1 X117.61 Y47.019 E2.85553
G1 X117.379 Y47.177 E2.86958
G1 X116.961 Y47.229 E2.89072
G1 X116.758 Y47.156 E2.90155
G1 X116.6 Y47.028 E2.91175
G1 X116.339 Y46.63 E2.93564
G1 X116 Y46.019 E2.97071
G1 X115.76 Y46.339 F18000
G1 E.97071 F2400
G92 E0
G1 X111.474 Y46.087 F18000
G1 E2 F2400
G1 F5040
G1 X111.568 Y45.762 E2.01698
;WIDTH:0.414789
G1 X111.809 Y45.413 E2.03794
;WIDTH:0.42
G1 X112.169 Y45.179 E2.05949
G1 X112.629 Y45.089 E2.08301
G1 X113.102 Y45.183 E2.10721
G1 X113.46 Y45.418 E2.1287
G1 X113.731 Y45.801 E2.15225
;WIDTH:0.452588
G1 X113.801 Y46.039 E2.16588
;WIDTH:0.485176
G1 X113.871 Y46.276 E2.18063
G1 X113.775 Y46.704 E2.2068
;WIDTH:0.439235
G1 X113.491 Y47.143 E2.2345
;WIDTH:0.42
G1 X113.094 Y47.412 E2.25857
G1 X112.627 Y47.502 E2.28244
G1 X112.202 Y47.423 E2.30413
G1 X111.765 Y47.137 E2.33034
G1 X111.524 Y46.776 E2.35212
G1 X111.425 Y46.257 E2.37864
G1 X111.457 Y46.145 E2.38449
G1 X111.584 Y45.766 F18000
G1 E.38449 F2400
G92 E0
G1 X106.87 Y41.037 F18000
G1 E2 F2400
G1 F5040
G1 X107.045 Y40.881 E2.01177
G1 X107.316 Y40.783 E2.02623
G1 X107.601 Y40.754 E2.04061
G1 X109.19 Y40.79 E2.12038
G1 X109.661 Y40.852 E2.14422
G1 X110.136 Y40.98 E2.16891
G1 X110.514 Y41.169 E2.19012
G1 X110.866 Y41.459 E2.21301
G1 X111.211 Y41.917 E2.24179
G1 X111.367 Y42.188 E2.25748
G1 X111.572 Y42.784 E2.28911
G1 X111.672 Y43.394 E2.32013
G1 X111.678 Y44.273 E2.36424
G1 X111.589 Y44.885 E2.39528
G1 X111.41 Y45.426 E2.42388
;WIDTH:0.415536
G1 X111.113 Y45.991 E2.4555
;WIDTH:0.42
G1 X110.671 Y46.467 E2.4881
G1 X110.22 Y46.754 E2.51493
G1 X109.757 Y46.913 E2.5395
G1 X109.243 Y46.996 E2.56563
G1 X108.717 Y47.024 E2.59207
G1 X108.008 Y47.017 E2.62765
G1 X107.465 Y47.057 E2.65497
G1 X107.093 Y46.978 E2.67406
G1 X106.844 Y46.655 E2.69453
G1 X106.765 Y46.182 E2.7186
G1 X106.782 Y45.595 E2.74807
G1 X106.787 Y41.98 E2.92949
G1 X106.746 Y41.384 E2.95947
G1 X106.833 Y41.082 E2.97524
G1 X107.161 Y40.853 F18000
G1 E.97524 F2400
G92 E0
G1 X102.483 Y42.358 F18000
G1 E2 F2400
G1 F5040
G1 X102.474 Y42.36 E2.00046
G1 X102.261 Y42.282 E2.01184
G1 X102.025 Y42.059 E2.02813
G1 X101.874 Y41.752 E2.0453
G1 X101.869 Y41.473 E2.0593
G1 X101.986 Y41.222 E2.0732
G1 X102.341 Y40.909 E2.09695
G1 X102.877 Y40.682 E2.12616
G1 X103.497 Y40.594 E2.15759
G1 X104.113 Y40.625 E2.18854
G1 X104.637 Y40.761 E2.21571
G1 X105.072 Y41.025 E2.24125
G1 X105.404 Y41.452 E2.26839
G1 X105.524 Y41.853 E2.2894
G1 X105.506 Y42.582 E2.326
G1 X105.381 Y42.989 E2.34737
G1 X105.273 Y43.152 E2.35718
G1 X105.056 Y43.327 E2.37117
G1 X104.825 Y43.442 E2.38412
G1 X105.134 Y43.569 E2.40089
G1 X105.398 Y43.814 E2.41897
G1 X105.544 Y44.094 E2.43482
G1 X105.673 Y44.504 E2.45639
G1 X105.781 Y45.132 E2.48837
G1 X105.734 Y45.586 E2.51128
G1 X105.579 Y46.026 E2.53469
G1 X105.419 Y46.312 E2.55114
G1 X105.133 Y46.649 E2.57332
G1 X104.794 Y46.906 E2.59467
G1 X104.494 Y47.05 E2.61137
G1 X104.071 Y47.161 E2.63332
G1 X103.328 Y47.189 E2.67063
G1 X102.662 Y47.06 E2.70467
G1 X102.199 Y46.81 E2.73108
G1 X101.991 Y46.573 E2.74691
G1 X101.866 Y46.198 E2.76675
G1 X101.857 Y46.045 E2.77444
G1 X101.931 Y45.754 E2.78951
G1 X102.063 Y45.585 E2.80027
G1 X102.301 Y45.451 E2.81398
G1 X102.612 Y45.409 E2.82973
G1 X103.032 Y45.515 E2.85147
G1 X103.562 Y45.87 E2.88348
G1 X103.81 Y45.867 E2.89593
G1 X104.109 Y45.682 E2.91358
G1 X104.258 Y45.4 E2.92959
G1 X104.251 Y45.074 E2.94595
G1 X104.116 Y44.772 E2.96255
G1 X103.806 Y44.476 E2.98406
G1 X103.255 Y44.283 E3.01336
G1 X102.767 Y44.146 E3.0388
G1 X102.598 Y43.959 E3.05145
G1 X102.542 Y43.747 E3.06245
G1 X102.615 Y43.309 E3.08473
G1 X102.849 Y43.008 E3.10386
G1 X103.077 Y42.902 E3.11648
G1 X103.663 Y42.774 E3.14658
G1 X103.886 Y42.589 E3.16112
G1 X103.98 Y42.353 E3.17387
G1 X103.926 Y42.107 E3.18651
G1 X103.767 Y41.959 E3.19741
G1 X103.451 Y41.943 E3.21329
G1 X103.251 Y42.021 E3.22406
G1 X102.824 Y42.283 E3.2492
G1 X102.542 Y42.345 E3.26369
G1 X102.176 Y42.184 F18000
G1 E1.26369 F2400
G92 E0
G1 X99.352 Y42.171 F18000
G1 E2 F2400
G1 F5040
G1 X99.327 Y42.186 E2.00146
G1 X99.301 Y43.169 E2.05081
G1 X99.315 Y46.279 E2.20689
G1 X99.165 Y46.766 E2.23246
G1 X99.009 Y46.926 E2.24367
G1 X98.817 Y47.018 E2.25435
G1 X98.526 Y47.047 E2.26903
G1 X98.216 Y46.963 E2.28515
G1 X98.003 Y46.77 E2.29958
G1 X97.914 Y46.481 E2.31476
G1 X97.952 Y45.858 E2.34608
G1 X97.935 Y43.081 E2.48545
G1 X97.967 Y42.552 E2.51205
G1 X97.947 Y42.347 E2.52239
G1 X97.797 Y42.188 E2.53336
G1 X97.598 Y42.126 E2.54382
G1 X96.657 Y42.181 E2.59113
G1 X96.435 Y42.128 E2.60258
G1 X96.218 Y41.956 E2.61648
G1 X96.058 Y41.585 E2.63676
G1 X96.057 Y41.35 E2.64855
G1 X96.165 Y41.051 E2.6645
G1 X96.225 Y40.955 E2.67018
G1 X96.437 Y40.799 E2.68339
G1 X96.757 Y40.734 E2.69978
G1 X97.347 Y40.776 E2.72946
G1 X100.641 Y40.765 E2.89477
G1 X100.979 Y40.87 E2.91253
G1 X101.189 Y41.171 E2.93095
G1 X101.22 Y41.503 E2.94768
G1 X101.176 Y41.725 E2.95904
G1 X101.058 Y41.914 E2.97022
G1 X100.837 Y42.059 E2.98349
G1 X100.337 Y42.145 E3.00895
G1 X99.419 Y42.131 E3.05503
G1 X99.404 Y42.14 E3.05591
G1 X99.322 Y42.532 F18000
G1 E1.05591 F2400
G92 E0
G1 X95.381 Y45.697 F18000
G1 E2 F2400
G1 F5040
G1 X95.436 Y45.956 E2.01329
G1 X95.309 Y46.284 E2.03094
G1 X95.16 Y46.52 E2.04495
G1 X94.944 Y46.738 E2.06035
G1 X94.509 Y47.003 E2.08591
G1 X93.908 Y47.166 E2.11716
G1 X93.09 Y47.175 E2.15821
G1 X92.553 Y47.059 E2.18578
G1 X91.91 Y46.737 E2.22187
G1 X91.594 Y46.476 E2.24244
G1 X91.234 Y46.036 E2.27097
G1 X90.914 Y45.352 E2.30887
;WIDTH:0.460224
G1 X90.843 Y45.115 E2.32273
;WIDTH:0.500448
G1 X90.771 Y44.878 E2.33806
;WIDTH:0.540673
G1 X90.7 Y44.641 E2.35482
G1 X90.663 Y43.934 E2.40278
;WIDTH:0.540104
G1 X90.691 Y43.222 E2.45099
G1 X90.75 Y43.012 E2.46575
;WIDTH:0.500069
G1 X90.81 Y42.802 E2.47926
;WIDTH:0.460034
G1 X90.869 Y42.592 E2.49148
;WIDTH:0.42
G1 X91.058 Y42.073 E2.5192
G1 X91.388 Y41.543 E2.55053
