; generated by PrusaSlicer 2.9.2 on 2025-09-21 at 07:49:35 UTC

; 

; external perimeters extrusion width = 0.45mm
; perimeters extrusion width = 0.45mm
; infill extrusion width = 0.45mm
; solid infill extrusion width = 0.45mm
; top infill extrusion width = 0.40mm
; first layer extrusion width = 0.42mm

M190 S60 ; set bed temperature and wait for it to be reached
M104 S215 ; set temperature
;TYPE:Custom
G28 ; home all axes
G1 Z5 F5000 ; lift nozzle
M109 S215 ; set temperature and wait for it to be reached
G21 ; set units to millimeters
G90 ; use absolute coordinates
M82 ; use absolute distances for extrusion
G92 E0
; Filament gcode
M107
;LAYER_CHANGE
;Z:-1.28
;HEIGHT:-1.28
G1 E-2 F2400
G92 E0
G1 Z-1.28 F18000
G1 X70.632 Y30.08
G1 E2 F2400
;TYPE:Skirt/Brim
;WIDTH:0.42
;HEIGHT:0.35
G1 F1260
G1 X72.196 Y26.407 E2.20035
G1 X74.849 Y22.211 E2.44949
G1 X78.14 Y18.493 E2.69868
G1 X81.985 Y15.352 E2.94785
G1 X86.283 Y12.868 E3.19698
G1 X90.925 Y11.105 E3.44618
G1 X95.789 Y10.11 E3.69534
G1 X99.526 Y9.882 E3.88323
G1 X119.526 Y9.882 E4.88695
G1 X124.474 Y10.282 E5.13608
G1 X129.295 Y11.47 E5.38526
G1 X133.863 Y13.415 E5.63443
G1 X138.06 Y16.068 E5.88361
G1 X141.777 Y19.359 E6.13276
G1 X144.918 Y23.204 E6.38193
G1 X147.402 Y27.502 E6.63106
G1 X149.165 Y32.144 E6.88026
G1 X150.161 Y37.008 E7.12943
G1 X150.388 Y40.745 E7.31732
G1 X150.388 Y60.745 E8.32104
G1 X149.989 Y65.693 E8.57017
G1 X148.801 Y70.514 E8.81935
G1 X146.855 Y75.082 E9.06853
G1 X144.203 Y79.279 E9.31769
G1 X140.912 Y82.996 E9.56684
G1 X137.067 Y86.137 E9.81601
G1 X132.768 Y88.621 E10.06519
G1 X128.127 Y90.384 E10.31434
G1 X123.263 Y91.38 E10.56351
G1 X119.526 Y91.607 E10.7514
G1 X99.526 Y91.607 E11.75512
G1 X94.577 Y91.208 E12.0043
G1 X89.756 Y90.02 E12.25348
G1 X85.188 Y88.074 E12.50266
G1 X80.992 Y85.422 E12.75177
G1 X77.274 Y82.131 E13.00096
G1 X74.133 Y78.286 E13.25013
G1 X71.649 Y73.987 E13.49931
G1 X69.886 Y69.346 E13.74846
G1 X68.891 Y64.482 E13.99762
G1 X68.663 Y60.745 E14.18551
G1 X68.663 Y40.745 E15.18923
G1 X69.063 Y35.796 E15.43841
G1 X70.251 Y30.975 E15.68759
G1 X70.608 Y30.136 E15.73335
G1 X70.922 Y30.27 F18000
G1 F1260
G1 X72.54 Y26.494 E15.93952
G1 X75.191 Y22.329 E16.18729
G1 X78.479 Y18.646 E16.43507
G1 X82.318 Y15.542 E16.68283
G1 X86.607 Y13.097 E16.9306
G1 X91.234 Y11.375 E17.17837
G1 X96.078 Y10.423 E17.42612
G1 X99.526 Y10.227 E17.59944
G1 X119.526 Y10.227 E18.60316
G1 X124.446 Y10.627 E18.85089
G1 X129.239 Y11.814 E19.0987
G1 X133.776 Y13.759 E19.34643
G1 X137.941 Y16.41 E19.5942
G1 X141.624 Y19.698 E19.84198
G1 X144.729 Y23.537 E20.08977
G1 X147.174 Y27.826 E20.33754
G1 X148.895 Y32.453 E20.58529
G1 X149.848 Y37.297 E20.83305
G1 X150.043 Y40.745 E21.00637
G1 X150.043 Y60.745 E22.01009
G1 X149.644 Y65.666 E22.25787
G1 X148.456 Y70.458 E22.50564
G1 X146.511 Y74.995 E22.75337
G1 X143.86 Y79.16 E23.00114
G1 X140.572 Y82.843 E23.24892
G1 X136.734 Y85.948 E23.49667
G1 X132.445 Y88.393 E23.74444
G1 X127.818 Y90.114 E23.99219
G1 X122.973 Y91.067 E24.24
G1 X119.526 Y91.262 E24.41327
G1 X99.526 Y91.262 E25.41699
G1 X94.605 Y90.863 E25.66477
G1 X89.813 Y89.675 E25.91254
G1 X85.275 Y87.73 E26.16032
G1 X81.11 Y85.079 E26.40809
G1 X77.427 Y81.791 E26.65587
G1 X74.323 Y77.953 E26.90359
G1 X71.878 Y73.664 E27.15136
G1 X70.156 Y69.037 E27.39913
G1 X69.204 Y64.192 E27.64693
G1 X69.008 Y60.745 E27.8202
G1 X69.008 Y40.745 E28.82392
G1 X69.408 Y35.824 E29.0717
G1 X70.595 Y31.032 E29.31946
G1 X70.898 Y30.325 E29.35806
G1 X71.211 Y30.46 F18000
G1 F1260
G1 X72.884 Y26.581 E29.57007
G1 X75.533 Y22.449 E29.81639
G1 X78.818 Y18.8 E30.06279
G1 X82.65 Y15.733 E30.30911
G1 X86.93 Y13.327 E30.55552
G1 X91.542 Y11.648 E30.80184
G1 X96.366 Y10.738 E31.04821
G1 X99.526 Y10.572 E31.20702
G1 X119.526 Y10.572 E32.21074
G1 X124.418 Y10.972 E32.45707
G1 X129.182 Y12.159 E32.70347
G1 X133.689 Y14.103 E32.9498
G1 X137.822 Y16.752 E33.19617
G1 X141.47 Y20.037 E33.44254
G1 X144.538 Y23.869 E33.6889
G1 X146.943 Y28.149 E33.93528
G1 X148.623 Y32.761 E34.18162
G1 X149.532 Y37.585 E34.42798
G1 X149.698 Y40.745 E34.58679
G1 X149.698 Y60.745 E35.59051
G1 X149.299 Y65.637 E35.83683
G1 X148.111 Y70.401 E36.08324
G1 X146.167 Y74.908 E36.32957
G1 X143.518 Y79.041 E36.57594
G1 X140.234 Y82.689 E36.82227
G1 X136.401 Y85.757 E37.06866
G1 X132.122 Y88.162 E37.315
G1 X127.509 Y89.842 E37.56138
G1 X122.685 Y90.751 E37.80774
G1 X119.526 Y90.917 E37.9665
G1 X99.526 Y90.917 E38.97022
G1 X94.633 Y90.518 E39.21659
G1 X89.87 Y89.33 E39.46295
G1 X85.362 Y87.386 E39.70933
G1 X81.23 Y84.737 E39.95565
G1 X77.581 Y81.453 E40.20202
G1 X74.514 Y77.62 E40.44838
G1 X72.108 Y73.341 E40.69474
G1 X70.429 Y68.728 E40.94111
G1 X69.519 Y63.904 E41.18748
G1 X69.353 Y60.745 E41.34624
G1 X69.353 Y40.745 E42.34996
G1 X69.753 Y35.852 E42.59634
G1 X70.94 Y31.089 E42.84269
G1 X71.187 Y30.515 E42.87405
G1 E40.87405 F2400
G92 E0
G92 E0
G1 X118.626 Y59.845 F18000
G1 E2 F2400
;TYPE:Perimeter
;WIDTH:0.42
G1 F2100
G1 X100.425 Y59.845 E2.91343
G1 X100.425 Y41.644 E3.82686
G1 X118.626 Y41.644 E4.74029
G1 X118.626 Y50.745 E5.19703
G1 X118.626 Y59.785 E5.65071
G1 X118.971 Y60.19 F18000
G1 F2100
G1 X100.081 Y60.19 E6.59872
G1 X100.081 Y41.3 E7.54673
G1 X118.971 Y41.3 E8.49474
G1 X118.971 Y50.745 E8.96875
G1 X118.971 Y60.13 E9.43974
G1 X119.316 Y60.535 F18000
;TYPE:External perimeter
G1 F1050
G1 X99.736 Y60.535 E10.42238
G1 X99.736 Y40.955 E11.40502
G1 X119.316 Y40.955 E12.38766
G1 X119.316 Y50.745 E12.87898
G1 X119.316 Y60.475 E13.36729
G1 X118.92 Y60.534 F18000
G1 E11.36729 F2400
G92 E0
G1 X118.522 Y42.454 F18000
G1 E2 F2400
;TYPE:Solid infill
;WIDTH:0.424363
G1 F1470
G1 X117.971 Y41.903 E2.0396
G1 X117.477 Y41.903 E2.06471
G1 X118.367 Y42.793 E2.12868
G1 X118.367 Y43.287 E2.15379
G1 X116.983 Y41.903 E2.25326
G1 X116.489 Y41.903 E2.27837
G1 X118.367 Y43.781 E2.41334
G1 X118.367 Y44.275 E2.43845
G1 X115.996 Y41.903 E2.60889
G1 X115.502 Y41.903 E2.634
G1 X118.367 Y44.769 E2.83995
G1 X118.367 Y45.263 E2.86506
G1 X115.008 Y41.903 E3.10651
G1 X114.514 Y41.903 E3.13162
G1 X118.367 Y45.757 E3.40858
G1 X118.367 Y46.251 E3.43369
G1 X114.02 Y41.903 E3.74615
G1 X113.526 Y41.903 E3.77126
G1 X118.367 Y46.744 E4.11919
G1 X118.367 Y47.238 E4.1443
G1 X113.032 Y41.903 E4.52773
G1 X112.538 Y41.903 E4.55284
G1 X118.367 Y47.732 E4.97178
G1 X118.367 Y48.226 E4.99689
G1 X112.044 Y41.903 E5.45133
G1 X111.55 Y41.903 E5.47644
G1 X118.367 Y48.72 E5.96639
G1 X118.367 Y49.214 E5.9915
G1 X111.056 Y41.903 E6.51695
G1 X110.562 Y41.903 E6.54206
G1 X118.367 Y49.708 E7.10302
G1 X118.367 Y50.202 E7.12813
G1 X110.069 Y41.903 E7.72455
G1 X109.575 Y41.903 E7.74966
G1 X118.367 Y50.696 E8.38159
G1 X118.367 Y51.19 E8.4067
G1 X109.081 Y41.903 E9.07413
G1 X108.587 Y41.903 E9.09924
G1 X118.367 Y51.684 E9.80218
G1 X118.367 Y52.178 E9.82729
G1 X108.093 Y41.903 E10.56573
G1 X107.599 Y41.903 E10.59084
G1 X118.367 Y52.671 E11.36475
G1 X118.367 Y53.165 E11.38986
G1 X107.105 Y41.903 E12.19928
G1 X106.611 Y41.903 E12.22439
G1 X118.367 Y53.659 E13.06931
G1 X118.367 Y54.153 E13.09442
G1 X106.117 Y41.903 E13.97484
G1 X105.623 Y41.903 E13.99995
G1 X118.367 Y54.647 E14.91588
G1 X118.367 Y55.141 E14.94099
G1 X105.129 Y41.903 E15.89242
G1 X104.635 Y41.903 E15.91753
G1 X118.367 Y55.635 E16.90447
G1 X118.367 Y56.129 E16.92958
G1 X104.142 Y41.903 E17.95199
G1 X103.648 Y41.903 E17.9771
G1 X118.367 Y56.623 E19.03501
G1 X118.367 Y57.117 E19.06012
G1 X103.154 Y41.903 E20.15354
G1 X102.66 Y41.903 E20.17865
G1 X118.367 Y57.611 E21.30757
G1 X118.367 Y58.105 E21.33268
G1 X102.166 Y41.903 E22.4971
G1 X101.672 Y41.903 E22.52221
G1 X118.367 Y58.598 E23.7221
G1 X118.367 Y59.092 E23.74721
G1 X101.178 Y41.903 E24.98261
G1 X100.684 Y41.903 E25.00772
G1 X118.367 Y59.586 E26.27862
G1 X117.873 Y59.586 E26.30373
G1 X100.684 Y42.397 E27.53913
G1 X100.684 Y42.891 E27.56424
G1 X117.379 Y59.586 E28.76413
G1 X116.885 Y59.586 E28.78924
G1 X100.684 Y43.385 E29.95363
G1 X100.684 Y43.879 E29.97874
G1 X116.392 Y59.586 E31.10766
G1 X115.898 Y59.586 E31.13277
G1 X100.684 Y44.373 E32.22619
G1 X100.684 Y44.867 E32.2513
G1 X115.404 Y59.586 E33.30921
G1 X114.91 Y59.586 E33.33432
G1 X100.684 Y45.361 E34.35673
G1 X100.684 Y45.855 E34.38184
G1 X114.416 Y59.586 E35.36874
G1 X113.922 Y59.586 E35.39385
G1 X100.684 Y46.348 E36.34528
G1 X100.684 Y46.842 E36.37039
G1 X113.428 Y59.586 E37.28632
G1 X112.934 Y59.586 E37.31143
G1 X100.684 Y47.336 E38.19185
G1 X100.684 Y47.83 E38.21696
G1 X112.44 Y59.586 E39.06188
G1 X111.946 Y59.586 E39.08699
G1 X100.684 Y48.324 E39.89641
G1 X100.684 Y48.818 E39.92152
G1 X111.452 Y59.586 E40.69543
G1 X110.958 Y59.586 E40.72054
G1 X100.684 Y49.312 E41.45895
G1 X100.684 Y49.806 E41.48406
G1 X110.465 Y59.586 E42.187
G1 X109.971 Y59.586 E42.21211
G1 X100.684 Y50.3 E42.87954
G1 X100.684 Y50.794 E42.90465
G1 X109.477 Y59.586 E43.53658
G1 X108.983 Y59.586 E43.56169
G1 X100.684 Y51.288 E44.15811
G1 X100.684 Y51.782 E44.18322
G1 X108.489 Y59.586 E44.74414
G1 X107.995 Y59.586 E44.76925
G1 X100.684 Y52.275 E45.2947
G1 X100.684 Y52.769 E45.31981
G1 X107.501 Y59.586 E45.80976
G1 X107.007 Y59.586 E45.83487
G1 X100.684 Y53.263 E46.28931
G1 X100.684 Y53.757 E46.31442
G1 X106.513 Y59.586 E46.73336
G1 X106.019 Y59.586 E46.75847
G1 X100.684 Y54.251 E47.1419
G1 X100.684 Y54.745 E47.16701
G1 X105.525 Y59.586 E47.51494
G1 X105.031 Y59.586 E47.54005
G1 X100.684 Y55.239 E47.85247
G1 X100.684 Y55.733 E47.87758
G1 X104.538 Y59.586 E48.15454
G1 X104.044 Y59.586 E48.17965
G1 X100.684 Y56.227 E48.4211
G1 X100.684 Y56.721 E48.44621
G1 X103.55 Y59.586 E48.65216
G1 X103.056 Y59.586 E48.67727
G1 X100.684 Y57.215 E48.84771
G1 X100.684 Y57.709 E48.87282
G1 X102.562 Y59.586 E49.00776
G1 X102.068 Y59.586 E49.03287
G1 X100.684 Y58.202 E49.13234
G1 X100.684 Y58.696 E49.15745
G1 X101.574 Y59.586 E49.22142
G1 X101.08 Y59.586 E49.24653
G1 X100.529 Y59.035 E49.28613
;LAYER_CHANGE
;Z:-0.98
;HEIGHT:0.3
G1 E47.28613 F2400
G92 E0
G1 Z-.98 F18000
M140 S55 ; set bed temperature
G1 X118.529 Y59.748
G1 E2 F2400
;TYPE:Perimeter
;WIDTH:0.45
G1 F6000
G1 X100.522 Y59.748 E2.86607
G1 X100.522 Y41.741 E3.73214
G1 X118.529 Y41.741 E4.59821
G1 X118.529 Y50.745 E5.03127
G1 X118.529 Y59.688 E5.4614
G1 X118.915 Y60.134 F18000
G1 F6000
G1 X100.136 Y60.134 E6.3646
G1 X100.136 Y41.355 E7.2678
G1 X118.915 Y41.355 E8.171
G1 X118.915 Y50.745 E8.62263
G1 X118.915 Y60.074 E9.07132
G1 X119.301 Y60.52 F18000
;TYPE:External perimeter
G1 F3000
G1 X99.751 Y60.52 E10.01161
G1 X99.751 Y40.97 E10.9519
G1 X119.301 Y40.97 E11.89219
G1 X119.301 Y50.745 E12.36233
G1 X119.301 Y60.46 E12.82959
G1 X118.905 Y60.519 F18000
G1 E10.82959 F2400
G92 E0
G1 X100.916 Y42.061 F18000
G1 E2 F2400
;TYPE:Solid infill
;WIDTH:0.543559
G1 F4200
G1 X100.873 Y42.019 E2.00359
G1 X100.816 Y42.035 E2.00713
G1 X100.8 Y42.092 E2.01067
G1 X100.842 Y42.135 E2.01426
G1 X100.9 Y42.119 E2.01786
;WIDTH:0.45
G1 X100.811 Y42.735 E2.0478
G1 X101.516 Y42.03 E2.09575
G1 X102.062 Y42.03 E2.12201
G1 X100.811 Y43.281 E2.2071
G1 X100.811 Y43.826 E2.23331
G1 X102.607 Y42.03 E2.35547
G1 X103.152 Y42.03 E2.38168
G1 X100.811 Y44.371 E2.54091
G1 X100.811 Y44.917 E2.56717
G1 X103.698 Y42.03 E2.76354
G1 X104.243 Y42.03 E2.78975
G1 X100.811 Y45.462 E3.02319
G1 X100.811 Y46.007 E3.0494
G1 X104.788 Y42.03 E3.31991
G1 X105.334 Y42.03 E3.34617
G1 X100.811 Y46.553 E3.65382
G1 X100.811 Y47.098 E3.68003
G1 X105.879 Y42.03 E4.02475
G1 X106.424 Y42.03 E4.05096
G1 X100.811 Y47.643 E4.43275
G1 X100.811 Y48.189 E4.45901
G1 X106.97 Y42.03 E4.87794
G1 X107.515 Y42.03 E4.90415
G1 X100.811 Y48.734 E5.36015
G1 X100.811 Y49.279 E5.38636
G1 X108.06 Y42.03 E5.87943
G1 X108.606 Y42.03 E5.90569
G1 X100.811 Y49.825 E6.4359
G1 X100.811 Y50.37 E6.46211
G1 X109.151 Y42.03 E7.02939
G1 X109.696 Y42.03 E7.0556
G1 X100.811 Y50.915 E7.65995
G1 X100.811 Y51.461 E7.68621
G1 X110.242 Y42.03 E8.32769
G1 X110.787 Y42.03 E8.3539
G1 X100.811 Y52.006 E9.03246
G1 X100.811 Y52.551 E9.05867
G1 X111.332 Y42.03 E9.7743
G1 X111.878 Y42.03 E9.80056
G1 X100.811 Y53.097 E10.55332
G1 X100.811 Y53.642 E10.57953
G1 X112.423 Y42.03 E11.36936
G1 X112.969 Y42.03 E11.39562
G1 X100.811 Y54.188 E12.22259
G1 X100.811 Y54.733 E12.2488
G1 X113.514 Y42.03 E13.11284
G1 X114.059 Y42.03 E13.13905
G1 X100.811 Y55.278 E14.04016
G1 X100.811 Y55.824 E14.06642
G1 X114.605 Y42.03 E15.00467
G1 X115.15 Y42.03 E15.03088
G1 X100.811 Y56.369 E16.0062
G1 X100.811 Y56.914 E16.03241
G1 X115.695 Y42.03 E17.0448
G1 X116.241 Y42.03 E17.07106
G1 X100.811 Y57.46 E18.12059
G1 X100.811 Y58.005 E18.1468
G1 X116.786 Y42.03 E19.2334
G1 X117.331 Y42.03 E19.25961
G1 X100.811 Y58.55 E20.38328
G1 X100.811 Y59.096 E20.40954
G1 X117.877 Y42.03 E21.57035
G1 X118.372 Y41.928 E21.59466
;WIDTH:0.404381
G1 X118.301 Y41.909 E21.59778
G1 X118.32 Y41.98 E21.6009
G1 X118.361 Y41.969 E21.6027
;WIDTH:0.45
G1 X118.24 Y42.212 E21.61576
G1 X100.993 Y59.459 E22.78888
G1 X100.75 Y59.58 E22.80194
;WIDTH:0.404381
G1 X100.709 Y59.591 E22.80374
G1 X100.69 Y59.52 E22.80686
G1 X100.761 Y59.539 E22.80998
G1 X101.538 Y59.459 F18000
;WIDTH:0.45
G1 F4200
G1 X118.24 Y42.757 E23.94603
G1 X118.24 Y43.303 E23.97229
G1 X102.084 Y59.459 E25.0712
G1 X102.629 Y59.459 E25.09741
G1 X118.24 Y43.848 E26.15925
G1 X118.24 Y44.393 E26.18546
G1 X103.174 Y59.459 E27.21023
G1 X103.72 Y59.459 E27.23649
G1 X118.24 Y44.939 E28.22412
G1 X118.24 Y45.484 E28.25033
G1 X104.265 Y59.459 E29.20089
G1 X104.81 Y59.459 E29.2271
G1 X118.24 Y46.029 E30.14059
G1 X118.24 Y46.575 E30.16685
G1 X105.356 Y59.459 E31.0432
G1 X105.901 Y59.459 E31.06941
G1 X118.24 Y47.12 E31.90869
G1 X118.24 Y47.665 E31.9349
G1 X106.446 Y59.459 E32.73711
G1 X106.992 Y59.459 E32.76337
G1 X118.24 Y48.211 E33.52844
G1 X118.24 Y48.756 E33.55465
G1 X107.537 Y59.459 E34.28265
G1 X108.082 Y59.459 E34.30886
G1 X118.24 Y49.301 E34.99979
G1 X118.24 Y49.847 E35.02605
G1 X108.628 Y59.459 E35.67985
G1 X109.173 Y59.459 E35.70606
G1 X118.24 Y50.392 E36.32279
G1 X118.24 Y50.937 E36.349
G1 X109.718 Y59.459 E36.92866
G1 X110.264 Y59.459 E36.95492
G1 X118.24 Y51.483 E37.49744
G1 X118.24 Y52.028 E37.52365
G1 X110.809 Y59.459 E38.0291
G1 X111.354 Y59.459 E38.05531
G1 X118.24 Y52.574 E38.52365
G1 X118.24 Y53.119 E38.54986
G1 X111.9 Y59.459 E38.9811
G1 X112.445 Y59.459 E39.00731
G1 X118.24 Y53.664 E39.40148
G1 X118.24 Y54.21 E39.42774
G1 X112.991 Y59.459 E39.78477
G1 X113.536 Y59.459 E39.81098
G1 X118.24 Y54.755 E40.13094
G1 X118.24 Y55.3 E40.15715
G1 X114.081 Y59.459 E40.44004
G1 X114.627 Y59.459 E40.4663
G1 X118.24 Y55.846 E40.71205
G1 X118.24 Y56.391 E40.73826
G1 X115.172 Y59.459 E40.94694
G1 X115.717 Y59.459 E40.97315
G1 X118.24 Y56.936 E41.14476
G1 X118.446 Y57.323 E41.16585
;WIDTH:0.404381
G1 X118.375 Y57.304 E41.16897
G1 X118.394 Y57.375 E41.17209
G1 X118.435 Y57.364 E41.17389
;WIDTH:0.45
G1 X118.24 Y57.482 E41.18485
G1 X116.263 Y59.459 E41.31932
G1 X116.145 Y59.654 E41.33028
;WIDTH:0.404381
G1 X116.104 Y59.665 E41.33208
G1 X116.085 Y59.594 E41.3352
G1 X116.156 Y59.613 E41.33832
G1 E39.33832 F2400
G92 E0
G1 X118.104 Y58.163 F18000
G1 E2 F2400
;WIDTH:0.45
G1 F4200
G1 X116.808 Y59.459 E2.08815
G1 X118.24 Y59.459 E2.15702
G1 X118.24 Y58.027 E2.22589
G1 X117.875 Y59.025 F18000
;WIDTH:0.517751
G1 F4200
G1 X117.835 Y58.985 E2.22909
G1 X117.781 Y59 E2.23226
G1 X117.766 Y59.054 E2.23543
G1 X117.806 Y59.094 E2.23863
G1 X117.861 Y59.08 E2.24184
;LAYER_CHANGE
;Z:-0.68
;HEIGHT:0.3
G1 Z-.68 F18000
G1 X118.529 Y59.748
;TYPE:Perimeter
;WIDTH:0.45
G1 F6000
G1 X100.522 Y59.748 E3.10791
G1 X100.522 Y41.741 E3.97398
G1 X118.529 Y41.741 E4.84005
G1 X118.529 Y50.745 E5.27311
G1 X118.529 Y59.688 E5.70324
G1 X118.915 Y60.134 F18000
G1 F6000
G1 X100.136 Y60.134 E6.60644
G1 X100.136 Y41.355 E7.50964
G1 X118.915 Y41.355 E8.41284
G1 X118.915 Y50.745 E8.86447
G1 X118.915 Y60.074 E9.31316
G1 X119.301 Y60.52 F18000
;TYPE:External perimeter
G1 F3000
G1 X99.751 Y60.52 E10.25345
G1 X99.751 Y40.97 E11.19374
G1 X119.301 Y40.97 E12.13403
G1 X119.301 Y50.745 E12.60417
G1 X119.301 Y60.46 E13.07143
G1 X118.905 Y60.519 F18000
G1 E11.07143 F2400
G92 E0
G1 X100.842 Y59.355 F18000
G1 E2 F2400
;TYPE:Solid infill
;WIDTH:0.543559
G1 F4200
G1 X100.8 Y59.397 E2.00355
G1 X100.816 Y59.455 E2.00715
G1 X100.873 Y59.47 E2.01067
