; generated by PrusaSlicer 2.9.2 on 2025-09-21 at 10:37:34 UTC

; 

; external perimeters extrusion width = 0.45mm
; perimeters extrusion width = 0.45mm
; infill extrusion width = 0.45mm
; solid infill extrusion width = 0.45mm
; top infill extrusion width = 0.40mm
; first layer extrusion width = 0.42mm

M190 S60 ; set bed temperature and wait for it to be reached
M104 S215 ; set temperature
;TYPE:Custom
G28 ; home all axes
G1 Z5 F5000 ; lift nozzle
M109 S215 ; set temperature and wait for it to be reached
G21 ; set units to millimeters
G90 ; use absolute coordinates
M82 ; use absolute distances for extrusion
G92 E0
; Filament gcode
M107
;LAYER_CHANGE
;Z:-1.28
;HEIGHT:-1.28
G1 E-2 F2400
G92 E0
G1 Z-1.28 F18000
G1 X61.693 Y26.226
G1 E2 F2400
;TYPE:Skirt/Brim
;WIDTH:0.42
;HEIGHT:0.35
G1 F1260
G1 X63.33 Y22.907 E2.19501
G1 X65.951 Y18.968 E2.44433
G1 X69.267 Y15.308 E2.70458
G1 X72.887 Y12.342 E2.95119
G1 X76.687 Y10.032 E3.18553
G1 X80.765 Y8.262 E3.41979
G1 X83.915 Y7.318 E3.59307
G1 X87.475 Y6.653 E3.78391
G1 X89.662 Y6.439 E3.8997
G1 X113.141 Y4.999 E5.13926
G1 X116.338 Y4.917 E5.30778
G1 X118.843 Y5.009 E5.43987
G1 X121.509 Y5.258 E5.58097
G1 X124.419 Y5.712 E5.73617
G1 X126.73 Y6.21 E5.86074
G1 X129.549 Y6.991 E6.01488
G1 X132.099 Y7.867 E6.15696
G1 X134.453 Y8.83 E6.29098
G1 X136.888 Y9.993 E6.43318
G1 X139.111 Y11.216 E6.56688
G1 X141.474 Y12.7 E6.71392
G1 X143.759 Y14.337 E6.86204
G1 X145.711 Y15.915 E6.99431
G1 X147.702 Y17.722 E7.13599
G1 X149.456 Y19.504 E7.26775
G1 X151.237 Y21.53 E7.4099
G1 X152.738 Y23.446 E7.53816
G1 X154.867 Y26.577 E7.73768
G1 X156.361 Y29.199 E7.8967
G1 X158.082 Y33.184 E8.12544
G1 X159.364 Y37.918 E8.38388
G1 X159.901 Y42.5 E8.62698
G1 X159.766 Y47.195 E8.87449
G1 X159.02 Y51.536 E9.10659
G1 X157.818 Y55.398 E9.31973
G1 X156.349 Y58.686 E9.5095
G1 X155.38 Y60.437 E9.61496
G1 X154.018 Y62.601 E9.7497
G1 X152.711 Y64.452 E9.8691
G1 X151.05 Y66.555 E10.01031
G1 X149.383 Y68.434 E10.14267
G1 X147.573 Y70.262 E10.27823
G1 X145.771 Y71.894 E10.40634
G1 X143.989 Y73.346 E10.52747
G1 X141.903 Y74.87 E10.6636
G1 X139.941 Y76.146 E10.78693
G1 X137.547 Y77.521 E10.93241
G1 X135.579 Y78.515 E11.04859
G1 X133.543 Y79.421 E11.16602
G1 X131.227 Y80.313 E11.2968
G1 X128.94 Y81.056 E11.42351
G1 X126.444 Y81.719 E11.5596
G1 X123.95 Y82.236 E11.69382
G1 X120.958 Y82.667 E11.85311
G1 X118.367 Y82.88 E11.9901
G1 X115.463 Y82.943 E12.14316
G1 X113.113 Y82.86 E12.26707
G1 X89.704 Y81.425 E13.50293
G1 X87.56 Y81.218 E13.61643
G1 X83.837 Y80.524 E13.81599
G1 X80.876 Y79.638 E13.97886
G1 X76.872 Y77.924 E14.20837
G1 X73.005 Y75.602 E14.44606
G1 X69.438 Y72.713 E14.68794
G1 X66.261 Y69.286 E14.93419
G1 X63.602 Y65.425 E15.18123
G1 X61.635 Y61.49 E15.41305
G1 X60.252 Y57.475 E15.63682
G1 X59.589 Y54.507 E15.79707
G1 X59.154 Y50.79 E15.99427
G1 X59.092 Y48.83 E16.0976
G1 X59.092 Y39.036 E16.6137
G1 X59.17 Y36.83 E16.73002
G1 X59.682 Y32.851 E16.94142
G1 X60.61 Y29.167 E17.14161
G1 X61.673 Y26.282 E17.30363
M204 S8000
G1 X61.996 Y26.401 F18000
G1 F1260
G1 X62.011 Y26.36 E17.30593
G1 X63.629 Y23.078 E17.49875
G1 X66.223 Y19.181 E17.74544
G1 X69.505 Y15.557 E18.00308
G1 X73.087 Y12.623 E18.24707
G1 X76.847 Y10.338 E18.47892
G1 X80.881 Y8.587 E18.71065
G1 X83.998 Y7.652 E18.88213
G1 X87.519 Y6.995 E19.07087
G1 X89.684 Y6.783 E19.1855
G1 X113.162 Y5.343 E20.425
G1 X116.335 Y5.262 E20.59226
G1 X118.822 Y5.353 E20.7234
G1 X121.468 Y5.6 E20.86344
G1 X124.354 Y6.05 E21.01736
G1 X126.649 Y6.545 E21.14108
G1 X129.448 Y7.32 E21.29412
G1 X131.976 Y8.189 E21.43498
G1 X134.313 Y9.145 E21.56803
G1 X136.729 Y10.3 E21.70914
G1 X138.935 Y11.513 E21.8418
G1 X141.281 Y12.986 E21.98777
G1 X143.55 Y14.611 E22.13484
G1 X145.486 Y16.176 E22.26602
G1 X147.36 Y17.872 E22.39921
G1 X149.203 Y19.738 E22.53741
G1 X150.97 Y21.749 E22.67848
G1 X152.46 Y23.65 E22.80576
G1 X154.091 Y25.998 E22.95641
G1 X155.189 Y27.78 E23.06671
G1 X156.132 Y29.509 E23.17049
G1 X157.756 Y33.298 E23.38772
G1 X159.025 Y37.981 E23.64339
G1 X159.556 Y42.515 E23.88394
G1 X159.423 Y47.159 E24.12876
G1 X158.685 Y51.454 E24.3584
G1 X157.496 Y55.274 E24.56922
G1 X156.042 Y58.529 E24.75708
G1 X155.083 Y60.262 E24.86145
G1 X153.731 Y62.409 E24.99515
G1 X152.434 Y64.247 E25.11369
G1 X150.785 Y66.334 E25.25385
G1 X149.132 Y68.198 E25.38513
G1 X147.335 Y70.012 E25.51968
G1 X145.545 Y71.633 E25.64693
G1 X143.779 Y73.073 E25.76701
G1 X141.708 Y74.585 E25.90213
G1 X139.761 Y75.852 E26.02454
G1 X137.385 Y77.216 E26.16891
G1 X135.431 Y78.203 E26.28427
G1 X133.409 Y79.103 E26.4009
G1 X131.112 Y79.988 E26.53061
G1 X128.841 Y80.726 E26.65644
G1 X126.365 Y81.384 E26.79144
G1 X123.889 Y81.896 E26.92467
G1 X120.92 Y82.324 E27.08274
G1 X118.347 Y82.536 E27.21878
G1 X115.467 Y82.598 E27.37058
G1 X113.134 Y82.515 E27.4936
G1 X89.725 Y81.08 E28.72946
G1 X87.602 Y80.876 E28.84185
G1 X83.919 Y80.189 E29.03927
G1 X80.989 Y79.312 E29.20043
G1 X77.028 Y77.616 E29.42748
G1 X73.201 Y75.318 E29.66271
G1 X69.675 Y72.462 E29.90182
G1 X66.531 Y69.071 E30.1455
G1 X63.899 Y65.249 E30.39004
G1 X61.954 Y61.358 E30.61927
G1 X60.584 Y57.383 E30.84083
G1 X59.929 Y54.447 E30.99935
G1 X59.499 Y50.768 E31.19454
G1 X59.437 Y48.83 E31.29672
G1 X59.437 Y39.036 E31.81282
G1 X59.514 Y36.852 E31.92798
G1 X60.021 Y32.915 E32.13715
G1 X60.939 Y29.272 E32.33512
G1 X61.975 Y26.458 E32.49313
G1 X62.298 Y26.577 F18000
G1 F1260
G1 X62.329 Y26.494 E32.4978
G1 X63.929 Y23.249 E32.68845
G1 X66.495 Y19.393 E32.93252
G1 X69.744 Y15.807 E33.18751
G1 X73.096 Y13.039 E33.41658
G1 X76.797 Y10.753 E33.64581
G1 X80.998 Y8.912 E33.88751
G1 X84.081 Y7.987 E34.05712
G1 X87.562 Y7.337 E34.24372
G1 X89.705 Y7.128 E34.35718
G1 X113.183 Y5.687 E35.59669
G1 X116.333 Y5.607 E35.76273
G1 X118.801 Y5.697 E35.89287
G1 X121.427 Y5.942 E36.03185
G1 X124.289 Y6.389 E36.18449
G1 X126.569 Y6.881 E36.3074
G1 X129.346 Y7.65 E36.45924
G1 X131.854 Y8.512 E36.59899
G1 X134.173 Y9.46 E36.73101
G1 X136.452 Y10.546 E36.86404
G1 X138.76 Y11.81 E37.00271
G1 X141.088 Y13.271 E37.14754
G1 X143.34 Y14.885 E37.29354
G1 X145.261 Y16.438 E37.42371
G1 X147.121 Y18.121 E37.55589
G1 X148.95 Y19.973 E37.69305
G1 X150.704 Y21.969 E37.83307
G1 X152.183 Y23.855 E37.95937
G1 X153.441 Y25.638 E38.07436
G1 X154.892 Y27.955 E38.21842
G1 X155.825 Y29.666 E38.32111
G1 X157.431 Y33.413 E38.53593
G1 X158.686 Y38.045 E38.78881
G1 X159.212 Y42.529 E39.02672
G1 X159.08 Y47.123 E39.2689
G1 X158.35 Y51.371 E39.49603
G1 X157.174 Y55.15 E39.70458
G1 X155.735 Y58.372 E39.89053
G1 X154.785 Y60.087 E39.99384
G1 X153.444 Y62.218 E40.12652
G1 X152.156 Y64.042 E40.24418
G1 X150.52 Y66.113 E40.38325
G1 X148.881 Y67.962 E40.51345
G1 X147.098 Y69.762 E40.64696
G1 X145.32 Y71.372 E40.77336
G1 X143.569 Y72.799 E40.89239
G1 X141.513 Y74.3 E41.02653
G1 X139.582 Y75.557 E41.14794
G1 X137.223 Y76.912 E41.2913
G1 X135.284 Y77.891 E41.40576
G1 X133.276 Y78.785 E41.52159
G1 X130.996 Y79.663 E41.65034
G1 X128.742 Y80.395 E41.77522
G1 X126.287 Y81.048 E41.90908
G1 X123.828 Y81.557 E42.0414
G1 X120.881 Y81.981 E42.19829
G1 X118.328 Y82.191 E42.33328
G1 X115.471 Y82.254 E42.48387
G1 X113.155 Y82.171 E42.60599
G1 X89.746 Y80.736 E43.84185
G1 X87.645 Y80.534 E43.95307
G1 X84.001 Y79.854 E44.14841
G1 X81.102 Y78.986 E44.30787
G1 X77.183 Y77.308 E44.53252
G1 X73.398 Y75.035 E44.76517
G1 X69.911 Y72.211 E45.00162
G1 X66.801 Y68.857 E45.24265
G1 X64.195 Y65.074 E45.48472
G1 X62.273 Y61.227 E45.71133
G1 X60.917 Y57.292 E45.93065
G1 X60.268 Y54.386 E46.08755
G1 X59.843 Y50.746 E46.28066
G1 X59.782 Y48.83 E46.38168
G1 X59.782 Y39.036 E46.89778
G1 X59.858 Y36.873 E47.01183
G1 X60.36 Y32.978 E47.21878
G1 X61.267 Y29.377 E47.41446
G1 X62.278 Y26.633 E47.56856
G1 E45.56856 F2400
G92 E0
G92 E0
G1 X120.436 Y44.638 F18000
G1 E2 F2400
;TYPE:External perimeter
;WIDTH:0.42
G1 F4830
G1 X120.616 Y44.044 E2.03271
G1 X121 Y42.947 E2.09396
G1 X121.261 Y42.482 E2.12206
G1 X121.597 Y42.225 E2.14435
G1 X121.841 Y42.216 E2.15722
G1 X122.037 Y42.305 E2.16856
;WIDTH:0.43393
G1 X122.326 Y42.628 E2.19232
;WIDTH:0.470307
G1 X122.385 Y42.825 E2.20474
;WIDTH:0.506685
G1 X122.444 Y43.022 E2.2183
G1 X122.3 Y43.361 E2.24259
;WIDTH:0.463342
G1 X122.156 Y43.701 E2.26449
;WIDTH:0.42
G1 X120.885 Y47.247 E2.46299
G1 X120.306 Y48.666 E2.54375
G1 X119.959 Y49.225 E2.57842
G1 X119.642 Y49.484 E2.59999
G1 X119.371 Y49.614 E2.61583
G1 X118.889 Y49.747 E2.64218
G1 X118.446 Y49.723 E2.66556
G1 X118.12 Y49.483 E2.68689
G1 X117.945 Y49.068 E2.71062
G1 X117.996 Y48.702 E2.73009
G1 X118.143 Y48.534 E2.74185
G1 X118.348 Y48.436 E2.75382
G1 X118.815 Y48.273 E2.77988
G1 X119.021 Y48.153 E2.79244
G1 X119.292 Y47.714 E2.81963
G1 X119.635 Y46.899 E2.86622
G1 X119.698 Y46.657 E2.8794
G1 X119.582 Y46.263 E2.90104
G1 X119.342 Y45.697 E2.93344
G1 X118.408 Y43.187 E3.07457
G1 X118.37 Y42.787 E3.09574
G1 X118.456 Y42.478 E3.11264
G1 X118.691 Y42.258 E3.1296
G1 X118.942 Y42.203 E3.14314
G1 X119.189 Y42.236 E3.15627
G1 X119.569 Y42.454 E3.17936
G1 X119.771 Y42.804 E3.20065
G1 X119.952 Y43.435 E3.23524
G1 X120.413 Y44.583 E3.30043
G1 X120.569 Y44.214 F18000
G1 E1.30043 F2400
G92 E0
G1 X115.971 Y45.966 F18000
G1 E2 F2400
G1 F4830
G1 X115.965 Y45.955 E2.00066
G1 X115.615 Y46.643 E2.04134
G1 X115.271 Y47.077 E2.07052
G1 X115.007 Y47.215 E2.08622
G1 X114.687 Y47.181 E2.10318
G1 X114.428 Y47.014 E2.11942
;WIDTH:0.439235
G1 X114.284 Y46.787 E2.13438
;WIDTH:0.473581
G1 X114.233 Y46.514 E2.15129
;WIDTH:0.485176
G1 X114.271 Y46.36 E2.16123
G1 X114.393 Y46.133 E2.17738
;WIDTH:0.452588
G1 X114.515 Y45.907 E2.19219
;WIDTH:0.42
G1 X114.881 Y45.265 E2.23113
G1 X115.197 Y44.817 E2.26002
G1 X115.242 Y44.675 E2.26787
G1 X114.659 Y43.682 E2.32855
G1 X114.416 Y43.187 E2.35761
G1 X114.336 Y42.968 E2.3699
G1 X114.338 Y42.675 E2.38534
G1 X114.448 Y42.454 E2.39835
G1 X114.605 Y42.323 E2.40912
G1 X115.019 Y42.204 E2.43182
G1 X115.299 Y42.285 E2.44718
G1 X115.623 Y42.599 E2.47096
G1 X116.055 Y43.359 E2.51703
G1 X116.366 Y42.71 E2.55495
G1 X116.717 Y42.338 E2.5819
G1 X117.015 Y42.206 E2.59907
G1 X117.297 Y42.247 E2.61409
G1 X117.539 Y42.433 E2.63017
G1 X117.659 Y42.622 E2.64197
G1 X117.706 Y42.903 E2.65698
G1 X117.627 Y43.184 E2.67236
G1 X116.957 Y44.319 E2.74181
G1 X116.861 Y44.627 E2.75881
G1 X116.97 Y44.966 E2.77757
G1 X117.591 Y46 E2.84113
G1 X117.735 Y46.333 E2.86025
G1 X117.766 Y46.584 E2.87358
G1 X117.726 Y46.82 E2.88619
G1 X117.61 Y47.019 E2.89833
G1 X117.379 Y47.177 E2.91308
G1 X116.961 Y47.229 E2.93528
G1 X116.758 Y47.156 E2.94665
G1 X116.6 Y47.028 E2.95737
G1 X116.339 Y46.63 E2.98245
G1 X116 Y46.019 E3.01927
G1 X115.76 Y46.339 F18000
G1 E1.01927 F2400
G92 E0
G1 X111.474 Y46.087 F18000
G1 E2 F2400
G1 F4830
G1 X111.568 Y45.762 E2.01783
;WIDTH:0.414789
G1 X111.809 Y45.413 E2.03984
;WIDTH:0.42
G1 X112.169 Y45.179 E2.06247
G1 X112.629 Y45.089 E2.08717
G1 X113.102 Y45.183 E2.11258
G1 X113.46 Y45.418 E2.13515
G1 X113.731 Y45.801 E2.15987
;WIDTH:0.452588
G1 X113.801 Y46.039 E2.17418
;WIDTH:0.485176
G1 X113.871 Y46.276 E2.18966
G1 X113.775 Y46.704 E2.21714
;WIDTH:0.439235
G1 X113.491 Y47.143 E2.24623
;WIDTH:0.42
G1 X113.094 Y47.412 E2.2715
G1 X112.627 Y47.502 E2.29656
G1 X112.202 Y47.423 E2.31934
G1 X111.765 Y47.137 E2.34686
G1 X111.524 Y46.776 E2.36973
G1 X111.425 Y46.257 E2.39757
G1 X111.457 Y46.145 E2.40371
G1 X111.584 Y45.766 F18000
G1 E.40371 F2400
G92 E0
G1 X106.87 Y41.037 F18000
G1 E2 F2400
G1 F4830
G1 X107.045 Y40.881 E2.01235
G1 X107.316 Y40.783 E2.02754
G1 X107.601 Y40.754 E2.04264
G1 X109.19 Y40.79 E2.12639
G1 X109.661 Y40.852 E2.15142
G1 X110.136 Y40.98 E2.17734
G1 X110.514 Y41.169 E2.19961
G1 X110.866 Y41.459 E2.22364
G1 X111.211 Y41.917 E2.25386
G1 X111.367 Y42.188 E2.27034
G1 X111.572 Y42.784 E2.30355
G1 X111.672 Y43.394 E2.33612
G1 X111.678 Y44.273 E2.38244
G1 X111.589 Y44.885 E2.41503
G1 X111.41 Y45.426 E2.44506
;WIDTH:0.415536
G1 X111.113 Y45.991 E2.47826
;WIDTH:0.42
G1 X110.671 Y46.467 E2.51249
G1 X110.22 Y46.754 E2.54066
G1 X109.757 Y46.913 E2.56646
G1 X109.243 Y46.996 E2.5939
G1 X108.717 Y47.024 E2.62166
G1 X108.008 Y47.017 E2.65902
G1 X107.465 Y47.057 E2.68771
G1 X107.093 Y46.978 E2.70775
G1 X106.844 Y46.655 E2.72924
G1 X106.765 Y46.182 E2.75451
G1 X106.782 Y45.595 E2.78546
G1 X106.787 Y41.98 E2.97595
G1 X106.746 Y41.384 E3.00743
G1 X106.833 Y41.082 E3.02399
G1 X107.161 Y40.853 F18000
G1 E1.02399 F2400
G92 E0
G1 X102.483 Y42.358 F18000
G1 E2 F2400
G1 F4830
G1 X102.474 Y42.36 E2.00049
G1 X102.261 Y42.282 E2.01244
G1 X102.025 Y42.059 E2.02955
G1 X101.874 Y41.752 E2.04758
G1 X101.869 Y41.473 E2.06228
G1 X101.986 Y41.222 E2.07687
G1 X102.341 Y40.909 E2.10181
G1 X102.877 Y40.682 E2.13248
G1 X103.497 Y40.594 E2.16548
G1 X104.113 Y40.625 E2.19798
G1 X104.637 Y40.761 E2.22651
G1 X105.072 Y41.025 E2.25332
G1 X105.404 Y41.452 E2.28182
G1 X105.524 Y41.853 E2.30388
G1 X105.506 Y42.582 E2.34231
G1 X105.381 Y42.989 E2.36475
G1 X105.273 Y43.152 E2.37505
G1 X105.056 Y43.327 E2.38974
G1 X104.825 Y43.442 E2.40334
G1 X105.134 Y43.569 E2.42094
G1 X105.398 Y43.814 E2.43992
G1 X105.544 Y44.094 E2.45656
G1 X105.673 Y44.504 E2.47921
G1 X105.781 Y45.132 E2.51279
G1 X105.734 Y45.586 E2.53684
G1 X105.579 Y46.026 E2.56142
G1 X105.419 Y46.312 E2.57869
G1 X105.133 Y46.649 E2.60198
G1 X104.794 Y46.906 E2.6244
G1 X104.494 Y47.05 E2.64194
G1 X104.071 Y47.161 E2.66498
G1 X103.328 Y47.189 E2.70416
G1 X102.662 Y47.06 E2.73991
G1 X102.199 Y46.81 E2.76764
G1 X101.991 Y46.573 E2.78426
G1 X101.866 Y46.198 E2.80509
G1 X101.857 Y46.045 E2.81317
G1 X101.931 Y45.754 E2.82899
G1 X102.063 Y45.585 E2.84029
G1 X102.301 Y45.451 E2.85468
G1 X102.612 Y45.409 E2.87122
G1 X103.032 Y45.515 E2.89405
G1 X103.562 Y45.87 E2.92766
G1 X103.81 Y45.867 E2.94073
G1 X104.109 Y45.682 E2.95926
G1 X104.258 Y45.4 E2.97607
G1 X104.251 Y45.074 E2.99325
G1 X104.116 Y44.772 E3.01068
G1 X103.806 Y44.476 E3.03327
G1 X103.255 Y44.283 E3.06403
G1 X102.767 Y44.146 E3.09074
G1 X102.598 Y43.959 E3.10402
G1 X102.542 Y43.747 E3.11557
G1 X102.615 Y43.309 E3.13897
G1 X102.849 Y43.008 E3.15906
G1 X103.077 Y42.902 E3.17231
G1 X103.663 Y42.774 E3.20392
G1 X103.886 Y42.589 E3.21919
G1 X103.98 Y42.353 E3.23258
G1 X103.926 Y42.107 E3.24585
G1 X103.767 Y41.959 E3.2573
G1 X103.451 Y41.943 E3.27397
G1 X103.251 Y42.021 E3.28528
G1 X102.824 Y42.283 E3.31168
G1 X102.542 Y42.345 E3.32689
G1 X102.176 Y42.184 F18000
G1 E1.32689 F2400
G92 E0
G1 X99.352 Y42.171 F18000
G1 E2 F2400
G1 F4830
G1 X99.327 Y42.186 E2.00154
G1 X99.301 Y43.169 E2.05336
G1 X99.315 Y46.279 E2.21724
G1 X99.165 Y46.766 E2.24409
G1 X99.009 Y46.926 E2.25587
G1 X98.817 Y47.018 E2.26709
G1 X98.526 Y47.047 E2.2825
G1 X98.216 Y46.963 E2.29942
G1 X98.003 Y46.77 E2.31457
G1 X97.914 Y46.481 E2.3305
G1 X97.952 Y45.858 E2.36339
G1 X97.935 Y43.081 E2.50973
G1 X97.967 Y42.552 E2.53766
G1 X97.947 Y42.347 E2.54851
G1 X97.797 Y42.188 E2.56003
G1 X97.598 Y42.126 E2.57101
G1 X96.657 Y42.181 E2.62068
G1 X96.435 Y42.128 E2.63271
G1 X96.218 Y41.956 E2.6473
G1 X96.058 Y41.585 E2.66859
G1 X96.057 Y41.35 E2.68097
G1 X96.165 Y41.051 E2.69772
G1 X96.225 Y40.955 E2.70369
G1 X96.437 Y40.799 E2.71756
G1 X96.757 Y40.734 E2.73477
G1 X97.347 Y40.776 E2.76594
G1 X100.641 Y40.765 E2.93952
G1 X100.979 Y40.87 E2.95817
G1 X101.189 Y41.171 E2.97751
G1 X101.22 Y41.503 E2.99508
G1 X101.176 Y41.725 E3.00701
G1 X101.058 Y41.914 E3.01875
G1 X100.837 Y42.059 E3.03268
G1 X100.337 Y42.145 E3.05941
G1 X99.419 Y42.131 E3.10779
G1 X99.404 Y42.14 E3.10871
G1 X99.322 Y42.532 F18000
G1 E1.10871 F2400
G92 E0
G1 X95.381 Y45.697 F18000
G1 E2 F2400
G1 F4830
G1 X95.436 Y45.956 E2.01395
G1 X95.309 Y46.284 E2.03248
G1 X95.16 Y46.52 E2.04719
G1 X94.944 Y46.738 E2.06336
G1 X94.509 Y47.003 E2.0902
G1 X93.908 Y47.166 E2.12301
G1 X93.09 Y47.175 E2.16612
G1 X92.553 Y47.059 E2.19507
G1 X91.91 Y46.737 E2.23296
G1 X91.594 Y46.476 E2.25456
G1 X91.234 Y46.036 E2.28452
G1 X90.914 Y45.352 E2.32431
;WIDTH:0.460224
G1 X90.843 Y45.115 E2.33887
;WIDTH:0.500448
G1 X90.771 Y44.878 E2.35497
;WIDTH:0.540673
G1 X90.7 Y44.641 E2.37257
G1 X90.663 Y43.934 E2.42293
;WIDTH:0.540104
G1 X90.691 Y43.222 E2.47355
G1 X90.75 Y43.012 E2.48905
;WIDTH:0.500069
G1 X90.81 Y42.802 E2.50323
;WIDTH:0.460034
G1 X90.869 Y42.592 E2.51606
;WIDTH:0.42
G1 X91.058 Y42.073 E2.54517
